X:5001
T:The Road Home
M:4/4
L:1/8
Q:180
C:Aidan Crossey
K:D
cd|efed cdBc|ABAG FGEF|
|DFAd fdAF|GABd gfed|cdBc ABGA|FGEF D2AG|
FAde fdAF|GABd gfed|cdBc ABGA|FGEF D2FG||
|A(3BAF A dAFA|BAFA EAFA|BAFA dAFD|C2E2 D2FG|
|A(3BAF A dAFA|BAFA EAFA|BAFA dAFD|C2E2 D2FG||
|A2B2 A2Bd|e(3fed B A2FG|A2B2 A2de|ceBe A2FG|
A2B2 A2Bd|e(3fed B A2FG|A(3BAFA dAFD|C2E2 D2FG||
|A(3BAFA A(3BAFA|A(3BAFA d2FG|A(3BAFA dfed|cBAF D2FG|
|A(3BAFA A(3BAFA|A(3BAFA d2FG|A(3BAFA dfed|cBAF D2FG||
|A2B2 A2Bd|e(3fed B A2FG|A2B2 A2de|ceBe A2FG|
A2B2 A2Bd|e(3fed B A2FG|A(3BAF A dAFD|C2E2 D4||
